core/assets/icons/character.bee.outline.svg

<svg width="24" height="24" viewBox="0 0 24 24" xmlns="http://www.w3.org/2000/svg"><g id="character=bee, state=outline" clip-path="url(#clip0_4929_1531)"><path id="Vector" d="M19.0007 9H16.1508C16.3685 8.54388 16.5006 8.03931 16.5007 7.5C16.5004 6.10583 15.6799 4.91272 14.5007 4.34985V4C14.5017 3.44824 14.949 3.00098 15.5007 3H16.5007V1H15.5007C13.8435 1.00067 12.5015 2.34277 12.5007 4H11.5007C11.5 2.34277 10.158 1.00067 8.50073 1H7.50073V3H8.50073C9.05249 3.00098 9.49975 3.44824 9.50073 4V4.34985C8.32159 4.91272 7.5011 6.10583 7.50073 7.5C7.50091 8.03931 7.63294 8.54388 7.85065 9H5.00073C2.51501 9.00061 0.501342 11.0143 0.500732 13.5C0.501342 15.9857 2.51501 17.9994 5.00073 17.9999C5.57342 17.9999 6.12091 17.8903 6.62555 17.6946C6.75208 19.463 7.69367 21.1655 9.36658 22.0953C10.2043 22.5601 11.1187 22.783 12.0165 22.7826C13.9394 22.7841 15.8083 21.7636 16.8075 19.9618C17.2023 19.2487 17.3815 18.4721 17.4164 17.7078C17.9101 17.8939 18.443 17.9999 19.0007 17.9999C21.4865 17.9994 23.5001 15.9857 23.5007 13.5C23.5001 11.0143 21.4865 9.00061 19.0007 9ZM8.61707 17.0078C8.65442 16.5092 8.78863 16.0154 9.03375 15.5591L9.1712 15.3506H14.8303L14.9995 15.6072C15.2059 16.0245 15.3498 16.5119 15.4039 17.0078H8.61707V17.0078ZM10.4896 13.3506L12.0007 11.0583L13.5118 13.3506H10.4896ZM11.0007 6H13.0007C13.829 6.00146 14.4992 6.67169 14.5007 7.5C14.4992 8.32825 13.829 8.99847 13.0007 9H11.0007C10.1724 8.99847 9.50226 8.32825 9.50073 7.5C9.50226 6.67169 10.1724 6.00146 11.0007 6ZM2.50073 13.5C2.50323 12.1195 3.62024 11.0025 5.00073 11H9.64374L7.30562 14.5468L7.30489 14.5464C7.30391 14.5482 7.30329 14.55 7.30232 14.5518L7.08923 14.875C6.63849 15.5545 5.87488 16 5.00073 16C3.62024 15.9975 2.50323 14.8804 2.50073 13.5ZM12.0165 20.7826C11.4467 20.7823 10.8727 20.6433 10.3362 20.3461C9.76599 20.0315 9.32593 19.5606 9.03021 19.0078H15.0482C14.4115 20.1433 13.2347 20.7812 12.0165 20.7826ZM19.0007 16C18.1266 16 17.363 15.5546 16.9122 14.875L16.7469 14.6242C16.743 14.6167 16.7404 14.6083 16.7365 14.6008L16.7327 14.6028L14.3577 11H19.0007C20.3812 11.0025 21.4982 12.1195 21.5007 13.5C21.4982 14.8804 20.3812 15.9975 19.0007 16Z"/></g><defs><clipPath id="clip0_4929_1531"><rect width="24" height="24" transform="translate(0.000732422)"/></clipPath></defs></svg>

<svg xmlns="http://www.w3.org/2000/svg" width="24" height="24" fill="none"><g clip-path="url(#a)"><path fill="#191C22" d="M19 9h-2.85c.219-.456.35-.96.35-1.5a3.49 3.49 0 0 0-2-3.15V4a1.002 1.002 0 0 1 1-1h1V1h-1a3 3 0 0 0-3 3h-1a3 3 0 0 0-3-3h-1v2h1c.552.001 1 .448 1 1v.35c-1.178.563-1.999 1.756-2 3.15 0 .54.133 1.044.35 1.5H5a4.5 4.5 0 1 0 1.626 8.695c.126 1.768 1.068 3.47 2.74 4.4a5.472 5.472 0 0 0 7.44-2.134c.396-.712.575-1.489.61-2.253a4.48 4.48 0 0 0 1.585.292 4.5 4.5 0 0 0 0-9ZM8.618 17.008c.037-.499.172-.993.417-1.449l.137-.208h5.66l.168.256c.207.418.35.905.405 1.4H8.617Zm1.873-3.657L12 11.058l1.512 2.293H10.49ZM11 6h2a1.502 1.502 0 0 1 1.5 1.5A1.502 1.502 0 0 1 13 9h-2a1.502 1.502 0 0 1-1.5-1.5A1.502 1.502 0 0 1 11 6Zm-8.5 7.5A2.503 2.503 0 0 1 5 11h4.644l-2.338 3.547h-.001l-.003.005-.213.323A2.497 2.497 0 0 1 5.001 16a2.504 2.504 0 0 1-2.5-2.5Zm9.517 7.283c-.57 0-1.144-.14-1.68-.437a3.28 3.28 0 0 1-1.307-1.338h6.018a3.47 3.47 0 0 1-3.031 1.775ZM19 16a2.497 2.497 0 0 1-2.089-1.125l-.165-.25-.01-.024-.004.002L14.358 11H19a2.503 2.503 0 0 1 2.5 2.5A2.504 2.504 0 0 1 19 16Z"/></g><defs><clipPath id="a"><path fill="#fff" d="M0 0h24v24H0z"/></clipPath></defs></svg>
